content/blogs/regnskap/hva-er-aksjonaerlan-til-as/aksjonaerlan-fordeler.svg

<svg xmlns="http://www.w3.org/2000/svg" width="800" height="400" viewBox="0 0 800 400"><defs><linearGradient id="a" x1="0%" x2="100%" y1="0%" y2="100%"><stop offset="0%" style="stop-color:#3498db;stop-opacity:1"/><stop offset="100%" style="stop-color:#2980b9;stop-opacity:1"/></linearGradient><linearGradient id="b" x1="0%" x2="100%" y1="0%" y2="100%"><stop offset="0%" style="stop-color:#e67e22;stop-opacity:1"/><stop offset="100%" style="stop-color:#d35400;stop-opacity:1"/></linearGradient></defs><path fill="#f8f9fa" d="M0 0h800v400H0z"/><text x="400" y="30" fill="#2c3e50" font-family="Arial, sans-serif" font-size="24" font-weight="bold" text-anchor="middle">Fordeler med Aksjonærlån til AS</text><path stroke="#bdc3c7" stroke-dasharray="5,5" stroke-width="2" d="M400 50v330"/><rect width="300" height="280" x="50" y="70" fill="url(#a)" stroke="#2c3e50" stroke-width="2" rx="15"/><text x="200" y="100" fill="#fff" font-family="Arial, sans-serif" font-size="18" font-weight="bold" text-anchor="middle">For Aksjonæren (Långiver)</text><circle cx="200" cy="130" r="20" fill="#fff" stroke="#2c3e50" stroke-width="2"/><circle cx="195" cy="125" r="6" fill="#3498db"/><path fill="none" stroke="#3498db" stroke-width="2" d="M185 140q15-7 30 0"/><g transform="translate(80 170)"><rect width="20" height="20" fill="#fff" rx="3"/><path fill="none" stroke="#3498db" stroke-width="2" d="m5 10 4 4 6-8"/><text x="30" y="15" fill="#fff" font-family="Arial, sans-serif" font-size="14" font-weight="bold">Fleksibilitet</text><text x="30" y="30" fill="#fff" font-family="Arial, sans-serif" font-size="11">Enklere å få pengene tilbake</text><rect width="20" height="20" y="45" fill="#fff" rx="3"/><text x="10" y="60" fill="#3498db" font-family="Arial, sans-serif" font-size="12" font-weight="bold" text-anchor="middle">%</text><text x="30" y="60" fill="#fff" font-family="Arial, sans-serif" font-size="14" font-weight="bold">Renteinntekt</text><text x="30" y="75" fill="#fff" font-family="Arial, sans-serif" font-size="11">Markedsmessig avkastning</text><rect width="20" height="20" y="90" fill="#fff" rx="3"/><path fill="#3498db" d="m6 95 4-5 4 5v10H6Z"/><text x="30" y="105" fill="#fff" font-family="Arial, sans-serif" font-size="14" font-weight="bold">Sikkerhet</text><text x="30" y="120" fill="#fff" font-family="Arial, sans-serif" font-size="11">Kan kreve sikkerhet for lånet</text><rect width="20" height="20" y="135" fill="#fff" rx="3"/><circle cx="10" cy="145" r="6" fill="#3498db"/><text x="30" y="150" fill="#fff" font-family="Arial, sans-serif" font-size="14" font-weight="bold">Kontroll</text><text x="30" y="165" fill="#fff" font-family="Arial, sans-serif" font-size="11">Beholder samme eierandel</text></g><rect width="300" height="280" x="450" y="70" fill="url(#b)" stroke="#2c3e50" stroke-width="2" rx="15"/><text x="600" y="100" fill="#fff" font-family="Arial, sans-serif" font-size="18" font-weight="bold" text-anchor="middle">For Selskapet (Låntaker)</text><rect width="40" height="30" x="580" y="110" fill="#fff" stroke="#2c3e50" stroke-width="2" rx="3"/><rect width="6" height="6" x="585" y="115" fill="#e67e22" rx="1"/><rect width="6" height="6" x="595" y="115" fill="#e67e22" rx="1"/><rect width="6" height="6" x="605" y="115" fill="#e67e22" rx="1"/><rect width="6" height="6" x="585" y="125" fill="#e67e22" rx="1"/><rect width="6" height="6" x="595" y="125" fill="#e67e22" rx="1"/><rect width="6" height="6" x="605" y="125" fill="#e67e22" rx="1"/><g transform="translate(480 170)"><rect width="20" height="20" fill="#fff" rx="3"/><path fill="none" stroke="#e67e22" stroke-width="2" d="m5 5 10 5-10 5"/><text x="30" y="15" fill="#fff" font-family="Arial, sans-serif" font-size="14" font-weight="bold">Rask Kapital</text><text x="30" y="30" fill="#fff" font-family="Arial, sans-serif" font-size="11">Ingen kompliserte prosesser</text><rect width="20" height="20" y="45" fill="#fff" rx="3"/><text x="10" y="60" fill="#e67e22" font-family="Arial, sans-serif" font-size="12" font-weight="bold" text-anchor="middle">kr</text><text x="30" y="60" fill="#fff" font-family="Arial, sans-serif" font-size="14" font-weight="bold">Lavere Kostnader</text><text x="30" y="75" fill="#fff" font-family="Arial, sans-serif" font-size="11">Unngår emisjonskostnader</text><rect width="20" height="20" y="90" fill="#fff" rx="3"/><circle cx="10" cy="100" r="6" fill="#e67e22"/><text x="30" y="105" fill="#fff" font-family="Arial, sans-serif" font-size="14" font-weight="bold">Bevarer Struktur</text><text x="30" y="120" fill="#fff" font-family="Arial, sans-serif" font-size="11">Ingen utvanning av aksjer</text><rect width="20" height="20" y="135" fill="#fff" rx="3"/><path fill="#e67e22" d="m6 140 4-5 4 5-4 10Z"/><text x="30" y="150" fill="#fff" font-family="Arial, sans-serif" font-size="14" font-weight="bold">Skattefordel</text><text x="30" y="165" fill="#fff" font-family="Arial, sans-serif" font-size="11">Renteutgifter er fradragsberettigede</text></g><circle cx="400" cy="200" r="25" fill="#2c3e50"/><text x="400" y="208" fill="#fff" font-family="Arial, sans-serif" font-size="16" font-weight="bold" text-anchor="middle">VS</text><rect width="700" height="25" x="50" y="365" fill="#ecf0f1" stroke="#bdc3c7" rx="5"/><text x="400" y="382" fill="#2c3e50" font-family="Arial, sans-serif" font-size="12" text-anchor="middle">
    <tspan font-weight="bold">Win-Win:</tspan> Både aksjonær og selskap drar nytte av aksjonærlån til AS
  </text></svg>

<svg width="800" height="400" viewBox="0 0 800 400" xmlns="http://www.w3.org/2000/svg">
  <defs>
    <linearGradient id="shareholderGradient" x1="0%" y1="0%" x2="100%" y2="100%">
      <stop offset="0%" style="stop-color:#3498DB;stop-opacity:1" />
      <stop offset="100%" style="stop-color:#2980B9;stop-opacity:1" />
    </linearGradient>
    <linearGradient id="companyGradient" x1="0%" y1="0%" x2="100%" y2="100%">
      <stop offset="0%" style="stop-color:#E67E22;stop-opacity:1" />
      <stop offset="100%" style="stop-color:#D35400;stop-opacity:1" />
    </linearGradient>
  </defs>
  

  <rect width="800" height="400" fill="#F8F9FA"/>
  

  <text x="400" y="30" text-anchor="middle" font-family="Arial, sans-serif" font-size="24" font-weight="bold" fill="#2C3E50">Fordeler med Aksjonærlån til AS</text>
  

  <line x1="400" y1="50" x2="400" y2="380" stroke="#BDC3C7" stroke-width="2" stroke-dasharray="5,5"/>
  

  <rect x="50" y="70" width="300" height="280" fill="url(#shareholderGradient)" stroke="#2C3E50" stroke-width="2" rx="15"/>
  <text x="200" y="100" text-anchor="middle" font-family="Arial, sans-serif" font-size="18" font-weight="bold" fill="#FFF">For Aksjonæren (Långiver)</text>
  

  <circle cx="200" cy="130" r="20" fill="#FFF" stroke="#2C3E50" stroke-width="2"/>
  <circle cx="195" cy="125" r="6" fill="#3498DB"/>
  <path d="M 185 140 Q 200 133 215 140" stroke="#3498DB" stroke-width="2" fill="none"/>
  

  <g transform="translate(80, 170)">

    <rect x="0" y="0" width="20" height="20" fill="#FFF" rx="3"/>
    <path d="M 5 10 L 9 14 L 15 6" stroke="#3498DB" stroke-width="2" fill="none"/>
    <text x="30" y="15" font-family="Arial, sans-serif" font-size="14" fill="#FFF" font-weight="bold">Fleksibilitet</text>
    <text x="30" y="30" font-family="Arial, sans-serif" font-size="11" fill="#FFF">Enklere å få pengene tilbake</text>
    

    <rect x="0" y="45" width="20" height="20" fill="#FFF" rx="3"/>
    <text x="10" y="60" text-anchor="middle" font-family="Arial, sans-serif" font-size="12" fill="#3498DB" font-weight="bold">%</text>
    <text x="30" y="60" font-family="Arial, sans-serif" font-size="14" fill="#FFF" font-weight="bold">Renteinntekt</text>
    <text x="30" y="75" font-family="Arial, sans-serif" font-size="11" fill="#FFF">Markedsmessig avkastning</text>
    

    <rect x="0" y="90" width="20" height="20" fill="#FFF" rx="3"/>
    <path d="M 6 95 L 10 90 L 14 95 L 14 105 L 6 105 Z" fill="#3498DB"/>
    <text x="30" y="105" font-family="Arial, sans-serif" font-size="14" fill="#FFF" font-weight="bold">Sikkerhet</text>
    <text x="30" y="120" font-family="Arial, sans-serif" font-size="11" fill="#FFF">Kan kreve sikkerhet for lånet</text>
    

    <rect x="0" y="135" width="20" height="20" fill="#FFF" rx="3"/>
    <circle cx="10" cy="145" r="6" fill="#3498DB"/>
    <text x="30" y="150" font-family="Arial, sans-serif" font-size="14" fill="#FFF" font-weight="bold">Kontroll</text>
    <text x="30" y="165" font-family="Arial, sans-serif" font-size="11" fill="#FFF">Beholder samme eierandel</text>
  </g>
  

  <rect x="450" y="70" width="300" height="280" fill="url(#companyGradient)" stroke="#2C3E50" stroke-width="2" rx="15"/>
  <text x="600" y="100" text-anchor="middle" font-family="Arial, sans-serif" font-size="18" font-weight="bold" fill="#FFF">For Selskapet (Låntaker)</text>
  

  <rect x="580" y="110" width="40" height="30" fill="#FFF" stroke="#2C3E50" stroke-width="2" rx="3"/>
  <rect x="585" y="115" width="6" height="6" fill="#E67E22" rx="1"/>
  <rect x="595" y="115" width="6" height="6" fill="#E67E22" rx="1"/>
  <rect x="605" y="115" width="6" height="6" fill="#E67E22" rx="1"/>
  <rect x="585" y="125" width="6" height="6" fill="#E67E22" rx="1"/>
  <rect x="595" y="125" width="6" height="6" fill="#E67E22" rx="1"/>
  <rect x="605" y="125" width="6" height="6" fill="#E67E22" rx="1"/>
  

  <g transform="translate(480, 170)">

    <rect x="0" y="0" width="20" height="20" fill="#FFF" rx="3"/>
    <path d="M 5 5 L 15 10 L 5 15" stroke="#E67E22" stroke-width="2" fill="none"/>
    <text x="30" y="15" font-family="Arial, sans-serif" font-size="14" fill="#FFF" font-weight="bold">Rask Kapital</text>
    <text x="30" y="30" font-family="Arial, sans-serif" font-size="11" fill="#FFF">Ingen kompliserte prosesser</text>
    

    <rect x="0" y="45" width="20" height="20" fill="#FFF" rx="3"/>
    <text x="10" y="60" text-anchor="middle" font-family="Arial, sans-serif" font-size="12" fill="#E67E22" font-weight="bold">kr</text>
    <text x="30" y="60" font-family="Arial, sans-serif" font-size="14" fill="#FFF" font-weight="bold">Lavere Kostnader</text>
    <text x="30" y="75" font-family="Arial, sans-serif" font-size="11" fill="#FFF">Unngår emisjonskostnader</text>
    

    <rect x="0" y="90" width="20" height="20" fill="#FFF" rx="3"/>
    <circle cx="10" cy="100" r="6" fill="#E67E22"/>
    <text x="30" y="105" font-family="Arial, sans-serif" font-size="14" fill="#FFF" font-weight="bold">Bevarer Struktur</text>
    <text x="30" y="120" font-family="Arial, sans-serif" font-size="11" fill="#FFF">Ingen utvanning av aksjer</text>
    

    <rect x="0" y="135" width="20" height="20" fill="#FFF" rx="3"/>
    <path d="M 6 140 L 10 135 L 14 140 L 10 150 Z" fill="#E67E22"/>
    <text x="30" y="150" font-family="Arial, sans-serif" font-size="14" fill="#FFF" font-weight="bold">Skattefordel</text>
    <text x="30" y="165" font-family="Arial, sans-serif" font-size="11" fill="#FFF">Renteutgifter er fradragsberettigede</text>
  </g>
  

  <circle cx="400" cy="200" r="25" fill="#2C3E50"/>
  <text x="400" y="208" text-anchor="middle" font-family="Arial, sans-serif" font-size="16" font-weight="bold" fill="#FFF">VS</text>
  

  <rect x="50" y="365" width="700" height="25" fill="#ECF0F1" stroke="#BDC3C7" stroke-width="1" rx="5"/>
  <text x="400" y="382" text-anchor="middle" font-family="Arial, sans-serif" font-size="12" fill="#2C3E50">
    <tspan font-weight="bold">Win-Win:</tspan> Både aksjonær og selskap drar nytte av aksjonærlån til AS
  </text>
</svg>
